weallcode/static/weallcode/images/companies/apple.svg

<svg height="44" viewBox="0 0 38 44" width="38" xmlns="http://www.w3.org/2000/svg"><path d="m37.2035761 34.2893587c-.6822512 1.5372375-1.4898138 2.9522565-2.4254726 4.2532048-1.2753921 1.7735267-2.3196541 3.0011439-3.1244321 3.6828517-1.2475451 1.1189785-2.5842005 1.6920476-4.0155357 1.7246392-1.0275538 0-2.2667448-.2851766-3.7092188-.8636776-1.447208-.5757851-2.7771801-.8609616-3.9932581-.8609616-1.2753921 0-2.6432361.2851765-4.1063169.8609616-1.4653085.578501-2.6457423.8799734-3.5482632.909849-1.372578.0570354-2.74070057-.5323296-4.10631687-1.7708106-.87161072-.7414591-1.96182031-2.0125318-3.26784405-3.8132181-1.40126044-1.9229049-2.55329034-4.152714-3.45581123-6.6948594-.96656896-2.7458429-1.45110655-5.4047749-1.45110655-7.9789687 0-2.9487257.65329034-5.4919575 1.96182031-7.623177 1.02838928-1.7118742 2.3965118-3.0622532 4.1088231-4.0535812 1.7123113-.9913281 3.56246519-1.496498 5.55491719-1.528818 1.0902096 0 2.519874.3289036 4.2965118.9753038 1.7716254.648573 2.9091749.9774767 3.4079144.9774767.3728712 0 1.6365675-.384581 3.7788363-1.1512986 2.0258684-.7110402 3.7356735-1.0054511 5.136377-.8894793 3.7955444.2987564 6.647076 1.7580457 8.5434559 4.387102-3.3945478 2.0060135-5.0737212 4.8156816-5.0403048 8.4200418.0306317 2.8074954 1.0748937 5.1437705 3.1272167 6.9987761.9300894.8609617 1.9687821 1.5263737 3.1244321 1.998952-.2506229.7088674-.5151693 1.3878593-.7964239 2.0396914zm-8.7049684-33.4091137c0 2.20050386-.8242709 4.25510596-2.4672432 6.15682627-1.9827056 2.26077117-4.3808882 3.56715143-6.9815184 3.36100953-.0331379-.263992-.0523523-.54183548-.0523523-.83380196 0-2.11247937.942899-4.37325055 2.6173384-6.22173789.8359666-.93592233 1.8991646-1.71412844 3.1884801-2.33491708 1.2865309-.6115272 2.5034443-.94971945 3.6479555-1.00762387.0334164.29416642.0473399.58836.0473399.88021784z" fill="#fff" fill-opacity=".4"/></svg>

<?xml version="1.0" encoding="UTF-8"?>
<svg width="38px" height="44px" viewBox="0 0 38 44" version="1.1" xmlns="http://www.w3.org/2000/svg" xmlns:xlink="http://www.w3.org/1999/xlink">
    <!-- Generator: Sketch 52.6 (67491) - http://www.bohemiancoding.com/sketch -->
    <title>Apple_logo_black</title>
    <desc>Created with Sketch.</desc>
    <g id="Page-1" stroke="none" stroke-width="1" fill="none" fill-rule="evenodd" fill-opacity="0.4">
        <g id="Desktop" transform="translate(-774.000000, -3365.000000)" fill="#FFFFFF" fill-rule="nonzero">
            <g id="Group-26" transform="translate(-29.000000, 3294.000000)">
                <g id="Group-25" transform="translate(109.000000, 63.000000)">
                    <g id="Apple_logo_black" transform="translate(694.000000, 8.000000)">
                        <path d="M37.2035761,34.2893587 C36.5213249,35.8265962 35.7137623,37.2416152 34.7781035,38.5425635 C33.5027114,40.3160902 32.4584494,41.5437074 31.6536714,42.2254152 C30.4061263,43.3443937 29.0694709,43.9174628 27.6381357,43.9500544 C26.6105819,43.9500544 25.3713909,43.6648778 23.9289169,43.0863768 C22.4817089,42.5105917 21.1517368,42.2254152 19.9356588,42.2254152 C18.6602667,42.2254152 17.2924227,42.5105917 15.8293419,43.0863768 C14.3640334,43.6648778 13.1835996,43.9663502 12.2810787,43.9962258 C10.9085007,44.0532612 9.54037813,43.4638962 8.17476183,42.2254152 C7.30315111,41.4839561 6.21294152,40.2128834 4.90691778,38.4121971 C3.50565734,36.4892922 2.35362744,34.2594831 1.45110655,31.7173377 C0.484537593,28.9714948 0,26.3125628 0,23.738369 C0,20.7896433 0.653290341,18.2464115 1.96182031,16.115192 C2.99020959,14.4033178 4.35833211,13.0529388 6.07064341,12.0616108 C7.78295471,11.0702827 9.6331086,10.5651128 11.6255606,10.5327928 C12.7157702,10.5327928 14.1454346,10.8616964 15.9220724,11.5080966 C17.6936978,12.1566696 18.8312473,12.4855733 19.3299868,12.4855733 C19.702858,12.4855733 20.9665543,12.1009923 23.1088231,11.3342747 C25.1346915,10.6232345 26.8444966,10.3288236 28.2452001,10.4447954 C32.0407445,10.7435518 34.8922761,12.2028411 36.788656,14.8318974 C33.3941082,16.8379109 31.7149348,19.647579 31.7483512,23.2519392 C31.7789829,26.0594346 32.8232449,28.3957097 34.8755679,30.2507153 C35.8056573,31.111677 36.84435,31.777089 38,32.2496673 C37.7493771,32.9585347 37.4848307,33.6375266 37.2035761,34.2893587 Z M28.4986077,0.880245001 C28.4986077,3.08074886 27.6743368,5.13535096 26.0313645,7.03707127 C24.0486589,9.29784244 21.6504763,10.6042227 19.0498461,10.3980808 C19.0167082,10.1340888 18.9974938,9.85624532 18.9974938,9.56427884 C18.9974938,7.45179947 19.9403928,5.19102829 21.6148322,3.34254095 C22.4507988,2.40661862 23.5139968,1.62841251 24.8033123,1.00762387 C26.0898432,0.396096671 27.3067566,0.0579044228 28.4512678,0 C28.4846842,0.294166418 28.4986077,0.588359996 28.4986077,0.880217841 L28.4986077,0.880245001 Z" id="Shape"></path>
                    </g>
                </g>
            </g>
        </g>
    </g>
</svg>
